X:1
T:Alig várom este legyen
C:Hungarian folk song
Z:Public Domain
L:1/8
M:4/4
K:C
V:1 treble nm="Voice"
%%MIDI program 52
V:1
 d3 c d3 c | ec d2 c2 z2 | e2 d2 A2 d2 | cA(GA) F2 z2 | EF(GA) (F3 G) | AF G2 A2 z2 | d2 c2 A3 F | %7
w: A- lig vá- rom,|es- te le- gyen,|hogy a li- bám|o- da le- * gyen,|Hadd me- hes- * sek *|lúd ke- res- ni,|a ba- bám- mal|
 GF E2 D2 z2 |] %8
w: be- szél- get- ni.-|

